X:403
T:Reel 403
M:4/4
K:Amix
L:1/8
ED|CA,A,C E>D,E,>G,|C,G,A,C EGAB|c>A (3AGA, EDCA,|B,G,G,B, G,E,D,:||2A,B,CD EFED|CB,A,G, A,2|AB|cBAG AGED|CB,CD EAAB|cBAG ABcA|BAGB AGEA|CB,CD EFGE|DB,G,A, B,CDB,|A,AAG AGED|CA,B,G, A,2|
